X: 10340
T: Don Oiche Ud I mBeithil
R: reel
M: 4/4
K: Aminor
M:3/4
K:Amin
L:1/4
E|A>B c|BAG|A3-|A2A|c>d e|1 d2B|G3-|G2:|2 B2A|A3-|A2 e||
g2e|d>eg|a3-|a>b a|g2e|c>d e|e3-|e2E|
A>B c|B>AG|A3-|A2A|c>d e|B2A|A3-|A2||

